X:1
T:Crud'Amarilli
T:Crud'Amarilli
T:Giovanni Nauwach
T:Source : Mibro primo di Arie passeggiate a una voce + BC ---Brescia---1623. Editor : André Vierendeels (28/10/16).
T:Notes : Original clefs : C1, F4 Editorial accidentals above thja staff Figures in BC are notated in original print
T:©
T:©
T:©
T:©
T:©
C:Giovanni Nauwach
Z:©
%%score 1 2
L:1/8
Q:1/4=88
M:4/4
K:C
V:1 treble nm="Soprano" snm="S"
V:2 bass nm="MusicXML Part"
V:1
 d8- | d2 ^GG A4 | ^G4 e4- | e2 BB c4 | B4 z2 AG | F3 E E4 | D4 z2 A2 | B4 z2 d2 | e4 edcB | %9
w: Crud'|_ A- ma- ril-|li, Crud'|_ A- ma- ril-|li, che co'l|no- me'an- co-|ra, d'a-|mar, d'a-|mar ahi _ _ _|
 cBdc B4- | B2 c2 A4 | E/F/G/F/ E/F/G/F/ G/A/E/F/4G/4 A/B/c/d/ | e6 dc | Td8 | c4 z BBc | d6 e2 | %16
w: _ _ _ _ las-|* * so,|a- * * * * * * * * * * * * * * * *|* ma- ra|men-|te, a- ma- ra-|men- te'in|
 fedc TB4 | A8 :: e4 dcdB | c4 B3 d | A/G/A/B/ c/B/c/A/ B/c/d G/A/B/c/ | %21
w: se- * * * *|gni,|A- ma- * * *|ril- li, del|can- * * * * * * * * * * * * * *|
 d/e/d/e/ f/e<Td c<Tc B/TB- | BA G/F/G/E/ F/G/A/B/ c/B/d/c/ | B3 A A4 | cB TAG ATG F/E/F | %25
w: * * * * * * * di- do li- gu-|* stro, piu _ _ _ _ _ _ _ _ _ _ _|can- di- d'e|piu _ _ _ _ _ _ _ _|
 G2 C/D/E/F/ E/F/E/E/ E/E/D/E/ | F8 | A/G/F/E/ D/E/F/G/ A/B/c/A/ _B2 | A4 d3 c | %29
w: bel- * * * * * * * * * * * *|la,|ma- * * * * * * * * * * * *|de l'a- spi-|
 B4 c/B/A/B/ c/B/c/A/ | d/c/d/e/ f/e/d/c/ TB4 | A4 z2 EE | A6 D2 | ^C4 ABcd | e4- ed/c/ B/A/G/F/ | %35
w: do sor- * * * * * * *||do, e piu|sord' e|piu de- ra'e piu fu-|ga- * * * * * * *|
 E/F/G/A/ B/c/d/G/ TA4 | B4 z B^cd | ^cB d4 c2 | d4 z2 cB | A6 B2 | ^G4 z2 AG | F6 G2 | E8 | %43
w: |ce, poi che col|dir t'of- fen- *|do, i mir|mor- *|ro, i mir|mor- *|ro,|
 z4 d/c/_B/A/ G/F/E/D/ | ^C2 D4 C2 | !fermata!D8 :| %46
w: ta- * * * * * * *|cen- * *|do.|
V:2
"^BC" D,2 E,2 ^F,4 |"^# 6" B,,4 A,,4 |"^#" E,4 C,2 B,,A,, | ^G,,4 A,,4 | E,2 D,2 ^C,4 | %5
"^#" D,2 C,B,, A,,4 | D,2 E,2 ^F,4 | G,4 B,,4 | C,4 A,,4 |"^#" A,,4 E,4 | A,,8 | C,8 | %12
 C,2 B,,A,, G,,4 |"^3443" G,,8 | C,2 D,2 E,4 | B,,4 ^C,4 |"^#" D,4 E,4 | A,,8 :: C,4 B,,4 | %19
 A,,4 G,,4 | F,6 E,2 | D,4 A,,2 G,,2 | F,2 E,2 D,2 C,2 | E,4 A,,2 G,,2 | F,,4 F,4 |"^3443" C,8 | %26
 F,6 E,2 |"^b" D,6 G,2 | D,3 C, B,,2 A,,2 | G,,4 C,4 | D,4 E,4 | A,,2 B,,2 ^C,4 | D,4 B,,4 | %33
"^#""^(-natural)" A,,4 A,,4 |"^-natural" C,4 B,,4 | C,4 A,,4 | G,,4 G,4- | G,2 F,2 E,4 | %38
 D,4 A,,4- | A,,2 B,,2 ^C,2 D,2 |"^#" E,3 D, ^C,4 | D,8 | A,,8 |"^b" G,,2 A,,2 _B,,4 | %44
"^# 3443" A,,8 | !fermata!D,8 :| %46

